public/img/grocery.svg

<svg width="32" height="32" viewBox="0 0 32 32" fill="none" xmlns="http://www.w3.org/2000/svg">
<path d="M22.3334 31.8333C19.6945 31.8333 17.4514 30.9097 15.6042 29.0625C13.757 27.2153 12.8334 24.9722 12.8334 22.3333C12.8334 19.6944 13.757 17.4514 15.6042 15.6042C17.4514 13.7569 19.6945 12.8333 22.3334 12.8333C24.9722 12.8333 27.2153 13.7569 29.0625 15.6042C30.9097 17.4514 31.8334 19.6944 31.8334 22.3333C31.8334 24.9722 30.9097 27.2153 29.0625 29.0625C27.2153 30.9097 24.9722 31.8333 22.3334 31.8333ZM22.3334 28.6667C24.075 28.6667 25.566 28.0465 26.8063 26.8062C28.0465 25.566 28.6667 24.075 28.6667 22.3333C28.6667 20.5917 28.0465 19.1007 26.8063 17.8604C25.566 16.6201 24.075 16 22.3334 16C20.5917 16 19.1007 16.6201 17.8604 17.8604C16.6202 19.1007 16 20.5917 16 22.3333C16 24.075 16.6202 25.566 17.8604 26.8062C19.1007 28.0465 20.5917 28.6667 22.3334 28.6667ZM3.33335 28.6667C2.46252 28.6667 1.71703 28.3566 1.0969 27.7364C0.476756 27.1163 0.166687 26.3708 0.166687 25.5V13.4667C0.166687 13.2555 0.186479 13.0444 0.226062 12.8333C0.265645 12.6222 0.32502 12.4111 0.404187 12.2L3.57085 4.91666H3.33335C2.88474 4.91666 2.5087 4.76492 2.20523 4.46145C1.90176 4.15798 1.75002 3.78193 1.75002 3.33332V1.74999C1.75002 1.30138 1.90176 0.925337 2.20523 0.621865C2.5087 0.318393 2.88474 0.166656 3.33335 0.166656H14.4167C14.8653 0.166656 15.2413 0.318393 15.5448 0.621865C15.8483 0.925337 16 1.30138 16 1.74999V3.33332C16 3.78193 15.8483 4.15798 15.5448 4.46145C15.2413 4.76492 14.8653 4.91666 14.4167 4.91666H14.1792L16.7917 10.9333C16.2903 11.1972 15.8153 11.4743 15.3667 11.7646C14.9181 12.0549 14.4959 12.3847 14.1 12.7542L10.775 4.91666H6.97502L3.33335 13.4667V25.5H10.0625C10.1945 26.0542 10.3726 26.6017 10.5969 27.1427C10.8212 27.6837 11.0917 28.1917 11.4084 28.6667H3.33335ZM22.3334 11.25C21.225 11.25 20.2882 10.8674 19.5229 10.1021C18.7577 9.33679 18.375 8.39999 18.375 7.29166C18.375 6.18332 18.7577 5.24652 19.5229 4.48124C20.2882 3.71596 21.225 3.33332 22.3334 3.33332V11.25C22.3334 10.1417 22.716 9.20485 23.4813 8.43957C24.2465 7.67429 25.1834 7.29166 26.2917 7.29166C27.4 7.29166 28.3368 7.67429 29.1021 8.43957C29.8674 9.20485 30.25 10.1417 30.25 11.25H22.3334Z" fill="#33B148"/>
</svg>

<svg xmlns="http://www.w3.org/2000/svg" width="32" height="32" fill="none"><path fill="#33B148" d="M22.333 31.833q-3.958 0-6.729-2.77t-2.77-6.73 2.77-6.729 6.73-2.77q3.957 0 6.729 2.77 2.77 2.77 2.77 6.73 0 3.957-2.77 6.729-2.771 2.77-6.73 2.77m0-3.166q2.613 0 4.473-1.86t1.86-4.474q0-2.611-1.86-4.473Q24.946 16 22.333 16q-2.611 0-4.473 1.86Q16 19.72 16 22.333t1.86 4.473 4.473 1.86m-19 0a3.05 3.05 0 0 1-2.236-.93 3.05 3.05 0 0 1-.93-2.237V13.467q0-.318.06-.634.058-.316.177-.633l3.167-7.283h-.238q-.672 0-1.128-.456a1.53 1.53 0 0 1-.455-1.128V1.75q0-.674.455-1.128.456-.455 1.128-.455h11.084q.672 0 1.128.455T16 1.75v1.583q0 .673-.455 1.128-.456.456-1.128.456h-.238l2.613 6.016q-.753.396-1.425.832-.673.435-1.267.99l-3.325-7.838h-3.8l-3.642 8.55V25.5h6.73q.197.831.534 1.643.337.81.811 1.524zm19-17.417q-1.662 0-2.81-1.148t-1.148-2.81 1.148-2.81q1.148-1.149 2.81-1.149zq0-1.662 1.148-2.81t2.81-1.148 2.811 1.148 1.148 2.81z"/></svg>
